X: 33979
T: Reed Makers
R: jig
M: 6/8
K: Dmajor
FEF DEF|GFG EFG|Adc dAB|=cBA BAG|
F3 DEF|G2 G EFG|Adc dAF|1 =cGE DFG:|2 =cGE D3||
|:f2 f def|gfg efg|fgf ded|=cAB c2 A|
dAA eAA|fAA gAA|a2 a ge=c|AGF G3:|
|:F2 F ded|G3 ded|F3 ded|=cBA BAG|
FDF GDG|ADA BDB|dfd =cBA|1 GEA DFG:|2 GEA D3||
|:F2 A AGA|G2 B BAB|ABc dAF|=cGE EFG|
F2 A AGA|G2 B BAB|ABc dAF|1 =cGE DFG:|=cGE D3||

